svg/UnitedNationsOCHA-Humanitarian/socioeconomic_and_development_urban_icon_box.svg

<svg xmlns="http://www.w3.org/2000/svg" viewBox="0 0 32 32" enable-background="new 0 0 32 32"><path fill="#407cca" d="m8.427 17.831h1.459v1.945h-1.459v-1.945m5.206-4.83h2.38v-1.648h-2.38v1.648m-8.358 6.775h1.459v-1.945h-1.459v1.945m8.358-4.181h2.38v-1.647h-2.38v1.647m18.367-9.195v19.2c0 3.521-2.88 6.4-6.4 6.4h-19.2c-3.52 0-6.4-2.88-6.4-6.4v-19.2c0-3.52 2.88-6.4 6.4-6.4h19.2c3.52 0 6.4 2.88 6.4 6.4m-2.693 22.21h-1.387v-10.156h-4.52v10.156h-3.01v-18.961h-7.536v18.961h-2.01v-12.189h-6.53v12.189h-1.62c.881 1.081 2.206 1.787 3.706 1.787h19.2c1.5 0 2.825-.706 3.707-1.787m-12.08-15.613h2.381v-1.648h-2.381v1.648m0 2.594h2.381v-1.647h-2.381v1.647"/></svg>

<?xml version="1.0" encoding="utf-8"?>
<!-- Generator: Adobe Illustrator 16.0.3, SVG Export Plug-In . SVG Version: 6.00 Build 0)  -->
<!DOCTYPE svg PUBLIC "-//W3C//DTD SVG 1.1//EN" "http://www.w3.org/Graphics/SVG/1.1/DTD/svg11.dtd">
<svg version="1.1" id="Layer_1" xmlns="http://www.w3.org/2000/svg" xmlns:xlink="http://www.w3.org/1999/xlink" x="0px" y="0px"
	 width="32px" height="32px" viewBox="0 0 32 32" enable-background="new 0 0 32 32" xml:space="preserve">
<path fill="#407CCA" d="M8.427,17.831h1.459v1.945H8.427V17.831z M13.633,13.001h2.38v-1.648h-2.38V13.001z M5.275,19.776h1.459
	v-1.945H5.275V19.776z M13.633,15.595h2.38v-1.647h-2.38V15.595z M32,6.4v19.202c0,3.521-2.88,6.4-6.4,6.4H6.4
	c-3.52,0-6.4-2.88-6.4-6.4V6.4C0,2.88,2.88,0,6.4,0h19.2C29.12,0,32,2.88,32,6.4z M29.307,28.614H27.92V18.458H23.4v10.156h-3.012
	V9.653h-7.536v18.961h-2.008V16.425h-6.53v12.189H2.694C3.575,29.695,4.9,30.401,6.4,30.401h19.2
	C27.1,30.401,28.425,29.695,29.307,28.614z M17.229,13.001h2.381v-1.648h-2.381V13.001z M17.229,15.595h2.381v-1.647h-2.381V15.595z
	"/>
</svg>
